!!!COM: Palestrina, Giovanni Perluigi da
!!!OPR: Descendit angelus Domini
!!!OTL: Kyrie
**kern	**kern	**kern	**kern
*Ibass	*Itenor	*Icalto	*Icant
!Bassus	!Tenor	!Altus	!Cantus
*clefF4	*clefGv2	*clefG2	*clefG2
*k[b-]	*k[b-]	*k[b-]	*k[b-]
*F:ion	*F:ion	*F:ion	*F:ion
*M4/2	*M4/2	*M4/2	*M4/2
=1	=1	=1	=1
0r	0r	1r	0cc
.	.	[1f	.
=2	=2	=2	=2
0r	0r	1f]	1a
.	.	1d	1f
=3	=3	=3	=3
0F	0r	1c	1cc
.	.	1f	2cc
.	.	.	2cc
=4	=4	=4	=4
1D	0r	2f	1dd
.	.	2f	.
1C	.	1g	1ee
=5	=5	=5	=5
1F	0r	1a	2cc
.	.	.	4ff
.	.	.	4ee
2F	.	2.f	4dd
.	.	.	4cc
2F	.	.	[2cc
.	.	4e	.
=6	=6	=6	=6
1G	0r	1d	2cc]
.	.	.	2b-
1A	.	2c	2.cc
.	.	2e	.
.	.	.	4b-
=7	=7	=7	=7
1F	0c	2f	4a
.	.	.	4g
.	.	2a	1f
1r	.	1g	.
.	.	.	2e
=8	=8	=8	=8
1F	1A	1c	2f
.	.	.	2cc
1D	1F	2r	2dd
.	.	2d	2ff
=9	=9	=9	=9
2C	1c	2e	4ee
.	.	.	4dd
2E	.	2g	4cc
.	.	.	4b-
2F	2c	2f	4a
.	.	.	4b-
2A	2c	2e	[2cc
=10	=10	=10	=10
1G	1d	1.g	2cc]
.	.	.	2b-
1C	1e	.	2cc
.	.	4c	2g
.	.	4d	.
=11	=11	=11	=11
1r	1c	4e	1.cc
.	.	4f	.
.	.	4g	.
.	.	4e	.
2r	1f	1a	.
2F	.	.	2a
=12	=12	=12	=12
2G	2e	0r	2g
2B-	2d	.	2f
2A	2c	.	[1cc
4F	[2f	.	.
4G	.	.	.
=13	=13	=13	=13
4A	2f]	2r	1cc]
4B-	.	.	.
1c	2e	2c	.
.	1d	2d	1r
2B-	.	2f	.
=14	=14	=14	=14
1.c	4c	2e	0r
.	4d	.	.
.	4e	4c	.
.	4f	4d	.
.	2g	4e	.
.	.	4f	.
2B-	2G	[2g	.
=15	=15	=15	=15
2A	2c	4g]	2r
.	.	4f	.
2B-	2d	1f	2f
1G	1B-	.	2g
.	.	2e	2b-
=16	=16	=16	=16
0F	1c	4f	2a
.	.	4g	.
.	.	4a	4f
.	.	4b-	4g
.	2r	2cc	4a
.	.	.	4b-
.	2F	2a	4cc
.	.	.	4a
=17	=17	=17	=17
2r	1B-	1f	1dd
2BB-	.	.	.
2C	2A	2r	2cc
2E-	2G	2g	2b-
=18	=18	=18	=18
2D	2F	2a	1dd
4BB-	1B-	2d	.
4C	.	.	.
4D	.	1f	2dd
4E	.	.	.
2F	2A	.	[2cc
=19	=19	=19	=19
2C	2G	2e	4cc]
.	.	.	8b-
.	.	.	8a
2D	2F	2.f	2b-
1C	1G	.	1cc
.	.	8e	.
.	.	8d	.
.	.	2e	.
=20	=20	=20	=20
0F	0F	0f	0a
=21	=21	=21	=21
0r	0r	1r	1cc
.	.	1f	2cc
.	.	.	2a
=22	=22	=22	=22
0r	0r	2f	2cc
.	.	2d	2dd
.	.	2f	2cc
.	.	2g	4b-
.	.	.	4cc
=23	=23	=23	=23
0r	0r	2.f	4dd
.	.	.	4ee
.	.	.	1ff
.	.	4g	.
.	.	4a	.
.	.	4b-	.
.	.	[2cc	4ee
.	.	.	4dd
=24	=24	=24	=24
0r	1c	4cc]	1ee
.	.	8b-	.
.	.	8a	.
.	.	2g	.
.	2c	1a	2.cc
.	2A	.	.
.	.	.	4dd
=25	=25	=25	=25
0r	2c	2g	2ee
.	2d	2f	1ff
.	[1c	1g	.
.	.	.	2ee
=26	=26	=26	=26
1F	2c]	1f	1ff
.	2A	.	.
2F	2c	2r	2.f
2D	2d	2f	.
.	.	.	4g
=27	=27	=27	=27
2F	2c	2f	2a
2G	4B-	2d	2b-
.	4c	.	.
2.F	4d	2.f	2.a
.	4e	.	.
.	[2f	.	.
4G	.	8e	4b-
.	.	8d	.
=28	=28	=28	=28
4A	2f]	1c	1cc
4B-	.	.	.
1c	2e	.	.
.	1d	2G	1dd
2B	.	2g	.
=29	=29	=29	=29
1c	2r	2g	1ee
.	2c	2e	.
1r	2c	2g	2r
.	2A	2a	2cc
=30	=30	=30	=30
0r	2c	2g	2cc
.	2d	2f	2a
.	2c	2e	2cc
.	4F	2f	2dd
.	4G	.	.
=31	=31	=31	=31
1c	4A	4e	1cc
.	4B-	4d	.
.	4c	4e	.
.	4d	4f	.
2c	2e	2g	2r
2A	2f	2a	2cc
=32	=32	=32	=32
2c	2e	2g	2cc
2d	2f	1f	2b-
1c	1g	.	2cc
.	.	2e	2cc
=33	=33	=33	=33
1F	2f	1f	0a
.	2c	.	.
2F	2d	2r	.
2D	2f	2f	.
=34	=34	=34	=34
1G	2e	2g	0r
.	2.d	2b-	.
2F	.	2a	.
.	4c	.	.
2E	[2c	2g	.
=35	=35	=35	=35
1D	2c]	2.f	1r
.	2B	.	.
.	.	8e	.
.	.	8d	.
1C	1c	1e	2r
.	.	.	2cc
=36	=36	=36	=36
0r	1F	2r	2cc
.	.	2f	2a
.	2r	2g	1dd
.	2B-	2b-	.
=37	=37	=37	=37
0r	2c	2a	2cc
.	2e-	2.g	1b-
.	2.d	.	.
.	.	4f	.
.	.	[2f	2a
.	4c	.	.
=38	=38	=38	=38
2r	2B-	2f]	1g
2c	2c	2e	.
2c	1F	2f	2a
2A	.	2f	2cc
=39	=39	=39	=39
1d	0r	2f	2dd
.	.	2d	2ff
2c	.	1g	2ee
2B-	.	.	[2dd
=40	=40	=40	=40
1A	0r	4f	4dd]
.	.	4e	4cc
.	.	4e	1cc
.	.	8d	.
.	.	8c	.
1G	.	2d	.
.	.	2g	2b
=41	=41	=41	=41
2F	1f	2a	2cc
2A	.	2cc	4r
.	.	.	4cc
2B-	2f	2b-	2dd
2d	2d	2a	2ff
=42	=42	=42	=42
1.c	0g	1.cc	2ee
.	.	.	2cc
.	.	.	2ee
2G	.	[2b-	[2dd
=43	=43	=43	=43
2B-	2f	4b-]	2dd]
.	.	4a	.
2c	2e	2g	1cc
1G	1d	1g	.
.	.	.	2b
=44	=44	=44	=44
0C	0c	0e	0cc
=45	=45	=45	=45
0r	0r	1f	1r
.	.	2f	1cc
.	.	2f	.
=46	=46	=46	=46
0r	0r	1a	2cc
.	.	.	2cc
.	.	1b-	1dd
=47	=47	=47	=47
0r	1r	2a	1ff
.	.	2f	.
.	2r	1a	2ee
.	2c	.	2cc
=48	=48	=48	=48
0r	2c	1g	1ee
.	2c	.	.
.	1d	2f	1dd
.	.	2b-	.
=49	=49	=49	=49
0r	1f	2a	2cc
.	.	2f	2a
.	2e	2g	[1cc
.	2c	[2a	.
=50	=50	=50	=50
0r	1e-	2a]	2cc]
.	.	2.g	4b-
.	.	.	4a
.	1d	.	4b-
.	.	4f	4a
.	.	[2f	4a
.	.	.	8g
.	.	.	8f
=51	=51	=51	=51
1r	2c	2f]	1g
.	2c	2e	.
1F	2c	2f	[1f
.	2c	2a	.
=52	=52	=52	=52
2F	2d	2a	1f]
2F	2f	2a	.
1G	2e	2.b-	1r
.	[2d	.	.
.	.	8a	.
.	.	8g	.
=53	=53	=53	=53
1B-	4d]	2.f	1r
.	4c	.	.
.	4d	.	.
.	4e	4g	.
2A	1f	[1a	1cc
2F	.	.	.
=54	=54	=54	=54
1A	2e	2a]	2cc
.	1c	2e	2cc
1G	.	1g	1dd
.	2B-	.	.
=55	=55	=55	=55
2F	2c	1a	1ff
1c	2F	.	.
.	1G	2r	2ee
2B-	.	[2g	2dd
=56	=56	=56	=56
2c	1c	2g]	2.cc
2A	.	2f	.
.	.	.	4a
2G	1d	1g	4b-
.	.	.	4cc
2B-	.	.	[2dd
=57	=57	=57	=57
2A	2e	1a	4dd]
.	.	.	4cc
2F	2f	.	1cc
1G	1d	2.g	.
.	.	.	2b
.	.	4f	.
=58	=58	=58	=58
2.A	2c	2e	1cc
.	1f	2a	.
4B-	.	.	.
1c	.	1g	2r
.	2e	.	[2cc
=59	=59	=59	=59
2F	2f	0r	2cc]
2G	2d	.	2b-
2A	2c	.	2cc
2F	2f	.	2a
=60	=60	=60	=60
1G	2e	1r	2g
.	2.d	.	2b-
1F	.	2r	2a
.	4c	.	.
.	2A	[2f	2f
=61	=61	=61	=61
0r	2B-	2f]	1g
.	2c	2e	.
.	4d	2f	4f
.	4e	.	4g
.	4f	2d	4a
.	4d	.	4f
=62	=62	=62	=62
0r	4e	2c	1g
.	4f	.	.
.	2.g	2e-	.
.	.	2d	2a
.	4f	.	.
.	[2f	2B-	2b-
=63	=63	=63	=63
2r	2f]	2c	1g
1c	2e	2G	.
.	1d	[1g	2r
2B-	.	.	2d
=64	=64	=64	=64
2c	2r	2g]	2e
2A	1c	2c	2f
1G	.	1d	1g
.	2B-	.	.
=65	=65	=65	=65
0r	2c	2e	2g
.	2A	2f	2a
.	2G	2g	2b-
.	2B-	4f	[2cc
.	.	4e	.
=66	=66	=66	=66
0r	2A	2.f	4cc]
.	.	.	4cc
.	2F	.	1cc
.	.	4e	.
.	1G	1d	.
.	.	.	2b
=67	=67	=67	=67
2r	1A	2c	1cc
1F	.	2f	.
.	2F	2a	2r
2E	2G	2g	[2cc
=68	=68	=68	=68
2F	2A	2.f	2cc]
2D	2F	.	2b-
.	.	4d	.
2C	1G	4e	2cc
.	.	4f	.
2E-	.	[2g	4b-
.	.	.	4cc
=69	=69	=69	=69
2D	2A	4g]	1dd
.	.	4f	.
2BB-	2B-	1f	.
1C	1G	.	1cc
.	.	2e	.
=70	=70	=70	=70
0F	0F	0f	0a
==	==	==	==
*-	*-	*-	*-
!!!CDT: 1525/^1526/-1594/2/2
!!!OCY: Italia
!!!AGN: Mass (Parody)
!!!AST: renaissance, vocal
!!!ASW: Motet 1532 (Penet)
!!!PWK: Masses, Book 11
!!!RNB: Cadence finals: C
!!!YOR: Le Opere Complete, v. 28, p. 1
!!!YOO: Rome, Italy: Fratelli Scalera
!!!END: 1992//
!!!EED: John Miller
!!!YEC: Copyright 2000, John Miller
!!!YEN: United States of America
!!!YEM: Rights to all derivative electronic formats reserved.
!!!YEM: Refer to licensing agreement for further details.
!!!YEM: This file must be accompanied by the licensing agreement.
!!!YEM: A copy of the licensing agreement may be found at http://www.music-cog.ohio-state.edu/HumdrumDatabases/Palestrina/license.txt
!!!EMD: converted to Humdrum by Bret Aarden
